icons/githubCommit.svg

<svg xmlns="http://www.w3.org/2000/svg" viewBox="0 0 24 24"><path fill="#f3961a" d="M20 2H4a2 2 0 0 0-2 2v18l4-4h14a2 2 0 0 0 2-2V4a2 2 0 0 0-2-2M8 14H6v-2h2zm0-3H6V9h2zm0-3H6V6h2zm7 6h-5v-2h5zm3-3h-8V9h8zm0-3h-8V6h8z" data-iconColor="Github COMMIT"/></svg>

<!--
  - The MIT License (MIT)
  -
  - Copyright (c) 2015-2024 Elior "Mallowigi" Boukhobza
  -
  - Permission is hereby granted, free of charge, to any person obtaining a copy
  - of this software and associated documentation files (the "Software"), to deal
  - in the Software without restriction, including without limitation the rights
  - to use, copy, modify, merge, publish, distribute, sublicense, and/or sell
  - copies of the Software, and to permit persons to whom the Software is
  - furnished to do so, subject to the following conditions:
  -
  - The above copyright notice and this permission notice shall be included in all
  - copies or substantial portions of the Software.
  -
  - THE SOFTWARE IS PROVIDED "AS IS", WITHOUT WARRANTY OF ANY KIND, EXPRESS OR
  - IMPLIED, INCLUDING BUT NOT LIMITED TO THE WARRANTIES OF MERCHANTABILITY,
  - FITNESS FOR A PARTICULAR PURPOSE AND NONINFRINGEMENT. IN NO EVENT SHALL THE
  - AUTHORS OR COPYRIGHT HOLDERS BE LIABLE FOR ANY CLAIM, DAMAGES OR OTHER
  - LIABILITY, WHETHER IN AN ACTION OF CONTRACT, TORT OR OTHERWISE, ARISING FROM,
  - OUT OF OR IN CONNECTION WITH THE SOFTWARE OR THE USE OR OTHER DEALINGS IN THE
  - SOFTWARE.
  -
  -->

<svg  version="1.1" xmlns="http://www.w3.org/2000/svg" x="0px" y="0px" width="16px" height="16px"
     viewBox="0 0 24 24">
  <path fill="#f3961a" data-iconColor="Github COMMIT"
        d="M20,2H4A2,2 0 0,0 2,4V22L6,18H20A2,2 0 0,0 22,16V4A2,2 0 0,0 20,2M8,14H6V12H8V14M8,11H6V9H8V11M8,8H6V6H8V8M15,14H10V12H15V14M18,11H10V9H18V11M18,8H10V6H18V8Z"/>
</svg>
